content/sets-and-functions/images/function.svg

<svg height="179.637pt" viewBox="0 0 260.81 179.637" width="260.81pt" xmlns="http://www.w3.org/2000/svg" xmlns:xlink="http://www.w3.org/1999/xlink"><clipPath id="a"><path d="m160 1h99v178.636719h-99zm0 0"/></clipPath><symbol id="b" overflow="visible"><path d="m2.921875-1.90625c-.59375 1.015625-1.1875 1.359375-2.015625 1.40625-.1875.015625-.328125.015625-.328125.328125 0 .109375.09375.171875.21875.171875.3125 0 1.078125-.03125 1.390625-.03125.5 0 1.046875.03125 1.53125.03125.109375 0 .3125 0 .3125-.328125 0-.15625-.140625-.171875-.25-.171875-.390625-.03125-.71875-.171875-.71875-.578125 0-.25.109375-.4375.328125-.8125l1.3125-2.171875h4.390625c.015625.15625.015625.296875.03125.453125.046875.4375.265625 2.234375.265625 2.5625 0 .515625-.890625.546875-1.15625.546875-.1875 0-.375 0-.375.3125 0 .1875.140625.1875.25.1875.296875 0 .640625-.03125.9375-.03125h.96875c1.0625 0 1.8125.03125 1.828125.03125.125 0 .3125 0 .3125-.328125 0-.171875-.15625-.171875-.40625-.171875-.953125 0-.96875-.15625-1.015625-.671875l-1.0625-10.75c-.03125-.34375-.09375-.375-.28125-.375-.171875 0-.28125.03125-.4375.296875zm2.078125-2.65625 3.453125-5.78125.59375 5.78125zm0 0"/></symbol><symbol id="c" overflow="visible"><path d="m6.296875-10.59375c.15625-.640625.234375-.671875.90625-.671875h2.234375c1.9375 0 1.9375 1.65625 1.9375 1.8125 0 1.390625-1.390625 3.171875-3.65625 3.171875h-2.484375zm2.921875 4.453125c1.875-.34375 3.578125-1.65625 3.578125-3.25 0-1.34375-1.1875-2.375-3.140625-2.375h-5.53125c-.3125 0-.46875 0-.46875.328125 0 .171875.15625.171875.40625.171875 1.046875 0 1.046875.140625 1.046875.328125 0 .03125 0 .140625-.0625.40625l-2.328125 9.25c-.15625.609375-.1875.78125-1.390625.78125-.328125 0-.5 0-.5.3125 0 .1875.109375.1875.453125.1875h5.90625c2.625 0 4.65625-2 4.65625-3.734375 0-1.40625-1.234375-2.28125-2.625-2.40625zm-2.453125 5.640625h-2.328125c-.234375 0-.265625 0-.375-.015625-.1875-.015625-.203125-.046875-.203125-.1875 0-.125.03125-.234375.0625-.375l1.203125-4.859375h3.25c2.03125 0 2.03125 1.890625 2.03125 2.03125 0 1.65625-1.5 3.40625-3.640625 3.40625zm0 0"/></symbol><symbol id="d" overflow="visible"><path d="m7.671875-6.921875c.359375 0 .484375 0 .484375-.328125 0-.171875-.125-.171875-.4375-.171875h-1.40625c.328125-1.765625.578125-3 .71875-3.546875.09375-.40625.453125-.8125.90625-.8125.359375 0 .71875.15625.890625.3125-.671875.0625-.875.5625-.875.859375 0 .34375.265625.546875.59375.546875.34375 0 .859375-.28125.859375-.9375 0-.71875-.734375-1.125-1.484375-1.125-.734375 0-1.46875.546875-1.8125 1.21875-.3125.609375-.484375 1.234375-.875 3.484375h-1.15625c-.328125 0-.5 0-.5.3125 0 .1875.109375.1875.453125.1875h1.09375c-.296875 1.59375-1.015625 5.5-1.40625 7.328125-.296875 1.5-.546875 2.765625-1.40625 2.765625-.0625 0-.5625 0-.859375-.328125.875-.078125.875-.828125.875-.84375 0-.34375-.265625-.546875-.59375-.546875-.34375 0-.859375.28125-.859375.9375 0 .75.765625 1.125 1.4375 1.125 1.75 0 2.46875-3.15625 2.65625-4.015625.3125-1.328125 1.15625-5.90625 1.25-6.421875zm0 0"/></symbol><path d="m240 664c0 48.601562-21.488281 88-48 88s-48-39.398438-48-88 21.488281-88 48-88 48 39.398438 48 88" style="fill-rule:evenodd;fill:#add8e6;fill-opacity:.3;stroke-width:2;stroke-linejoin:round;stroke:#00008b;stroke-opacity:.3;stroke-miterlimit:10" transform="matrix(1 0 0 -1 -142.5 753.5)"/><path d="m257.5 90.136719c0-48.601563-21.488281-88-48-88s-48 39.398437-48 88c0 48.601562 21.488281 88 48 88s48-39.398438 48-88" fill="#ffc0cb" fill-opacity=".5" fill-rule="evenodd"/><g clip-path="url(#a)"><path d="m400 663.363281c0 48.601563-21.488281 88-48 88s-48-39.398437-48-88c0-48.601562 21.488281-88 48-88s48 39.398438 48 88" style="fill:none;stroke-width:2;stroke-linejoin:round;stroke:#8b0000;stroke-opacity:.5;stroke-miterlimit:10" transform="matrix(1 0 0 -1 -142.5 753.5)"/></g><g fill-rule="evenodd"><path d="m51.300781 49.5c0-.992188-.808593-1.800781-1.800781-1.800781s-1.800781.808593-1.800781 1.800781.808593 1.800781 1.800781 1.800781 1.800781-.808593 1.800781-1.800781" fill="#00008b"/><path d="m19.300781 81.5c0-.992188-.808593-1.800781-1.800781-1.800781s-1.800781.808593-1.800781 1.800781.808593 1.800781 1.800781 1.800781 1.800781-.808593 1.800781-1.800781" fill="#00008b"/><path d="m67.300781 113.5c0-.992188-.808593-1.800781-1.800781-1.800781s-1.800781.808593-1.800781 1.800781.808593 1.800781 1.800781 1.800781 1.800781-.808593 1.800781-1.800781" fill="#00008b"/><path d="m195.300781 49.5c0-.992188-.808593-1.800781-1.800781-1.800781s-1.800781.808593-1.800781 1.800781.808593 1.800781 1.800781 1.800781 1.800781-.808593 1.800781-1.800781" fill="#8b0000"/><path d="m243.300781 81.5c0-.992188-.808593-1.800781-1.800781-1.800781s-1.800781.808593-1.800781 1.800781.808593 1.800781 1.800781 1.800781 1.800781-.808593 1.800781-1.800781" fill="#8b0000"/><path d="m211.300781 113.5c0-.992188-.808593-1.800781-1.800781-1.800781s-1.800781.808593-1.800781 1.800781.808593 1.800781 1.800781 1.800781 1.800781-.808593 1.800781-1.800781" fill="#8b0000"/><path d="m225.039062 146.039062c0-.992187-.808593-1.800781-1.800781-1.800781-.996093 0-1.800781.808594-1.800781 1.800781 0 .996094.804688 1.800782 1.800781 1.800782.992188 0 1.800781-.804688 1.800781-1.800782" fill="#8b0000"/></g><path d="m195.675781 705.375c65.253907 11.683594 110.328125 11.996094 135.214844.9375" fill="none" stroke="#2e8b57" stroke-linejoin="round" stroke-miterlimit="10" stroke-width="2" transform="matrix(1 0 0 -1 -142.5 753.5)"/><path d="m330.890625 706.3125-5.453125 4.972656-1.890625-4.261718zm0 0" style="fill-rule:evenodd;fill:#2e8b57;stroke-width:2;stroke-linejoin:round;stroke:#2e8b57;stroke-miterlimit:10" transform="matrix(1 0 0 -1 -142.5 753.5)"/><path d="m162.609375 671.730469c72.972656-2.082031 129.441406 7.683593 169.410156 29.300781" fill="none" stroke="#2e8b57" stroke-linejoin="round" stroke-miterlimit="10" stroke-width="2" transform="matrix(1 0 0 -1 -142.5 753.5)"/><path d="m332.019531 701.03125-7.265625-1.277344 2.21875-4.101562zm0 0" style="fill-rule:evenodd;fill:#2e8b57;stroke-width:2;stroke-linejoin:round;stroke:#2e8b57;stroke-miterlimit:10" transform="matrix(1 0 0 -1 -142.5 753.5)"/><path d="m211.046875 638.953125c55.964844-10.722656 101.753906-10.691406 137.375.089844" fill="none" stroke="#2e8b57" stroke-linejoin="round" stroke-miterlimit="10" stroke-width="2" transform="matrix(1 0 0 -1 -142.5 753.5)"/><path d="m348.421875 639.042969-7.375.203125 1.351563-4.460938zm0 0" style="fill-rule:evenodd;fill:#2e8b57;stroke-width:2;stroke-linejoin:round;stroke:#2e8b57;stroke-miterlimit:10" transform="matrix(1 0 0 -1 -142.5 753.5)"/><use fill="#00008b" x="83.366" xlink:href="#b" y="178.533"/><use fill="#8b0000" x="247.135" xlink:href="#c" y="177.896"/><use fill="#2e8b57" x="122.237" xlink:href="#d" y="22.414"/></svg>

<?xml version="1.0" encoding="UTF-8"?>
<svg xmlns="http://www.w3.org/2000/svg" xmlns:xlink="http://www.w3.org/1999/xlink" width="260.81pt" height="179.637pt" viewBox="0 0 260.81 179.637" version="1.1">
<defs>
<g>
<symbol overflow="visible" id="glyph0-0">
<path style="stroke:none;" d=""/>
</symbol>
<symbol overflow="visible" id="glyph0-1">
<path style="stroke:none;" d="M 2.921875 -1.90625 C 2.328125 -0.890625 1.734375 -0.546875 0.90625 -0.5 C 0.71875 -0.484375 0.578125 -0.484375 0.578125 -0.171875 C 0.578125 -0.0625 0.671875 0 0.796875 0 C 1.109375 0 1.875 -0.03125 2.1875 -0.03125 C 2.6875 -0.03125 3.234375 0 3.71875 0 C 3.828125 0 4.03125 0 4.03125 -0.328125 C 4.03125 -0.484375 3.890625 -0.5 3.78125 -0.5 C 3.390625 -0.53125 3.0625 -0.671875 3.0625 -1.078125 C 3.0625 -1.328125 3.171875 -1.515625 3.390625 -1.890625 L 4.703125 -4.0625 L 9.09375 -4.0625 C 9.109375 -3.90625 9.109375 -3.765625 9.125 -3.609375 C 9.171875 -3.171875 9.390625 -1.375 9.390625 -1.046875 C 9.390625 -0.53125 8.5 -0.5 8.234375 -0.5 C 8.046875 -0.5 7.859375 -0.5 7.859375 -0.1875 C 7.859375 0 8 0 8.109375 0 C 8.40625 0 8.75 -0.03125 9.046875 -0.03125 L 10.015625 -0.03125 C 11.078125 -0.03125 11.828125 0 11.84375 0 C 11.96875 0 12.15625 0 12.15625 -0.328125 C 12.15625 -0.5 12 -0.5 11.75 -0.5 C 10.796875 -0.5 10.78125 -0.65625 10.734375 -1.171875 L 9.671875 -11.921875 C 9.640625 -12.265625 9.578125 -12.296875 9.390625 -12.296875 C 9.21875 -12.296875 9.109375 -12.265625 8.953125 -12 Z M 5 -4.5625 L 8.453125 -10.34375 L 9.046875 -4.5625 Z M 5 -4.5625 "/>
</symbol>
<symbol overflow="visible" id="glyph0-2">
<path style="stroke:none;" d="M 6.296875 -10.59375 C 6.453125 -11.234375 6.53125 -11.265625 7.203125 -11.265625 L 9.4375 -11.265625 C 11.375 -11.265625 11.375 -9.609375 11.375 -9.453125 C 11.375 -8.0625 9.984375 -6.28125 7.71875 -6.28125 L 5.234375 -6.28125 Z M 9.21875 -6.140625 C 11.09375 -6.484375 12.796875 -7.796875 12.796875 -9.390625 C 12.796875 -10.734375 11.609375 -11.765625 9.65625 -11.765625 L 4.125 -11.765625 C 3.8125 -11.765625 3.65625 -11.765625 3.65625 -11.4375 C 3.65625 -11.265625 3.8125 -11.265625 4.0625 -11.265625 C 5.109375 -11.265625 5.109375 -11.125 5.109375 -10.9375 C 5.109375 -10.90625 5.109375 -10.796875 5.046875 -10.53125 L 2.71875 -1.28125 C 2.5625 -0.671875 2.53125 -0.5 1.328125 -0.5 C 1 -0.5 0.828125 -0.5 0.828125 -0.1875 C 0.828125 0 0.9375 0 1.28125 0 L 7.1875 0 C 9.8125 0 11.84375 -2 11.84375 -3.734375 C 11.84375 -5.140625 10.609375 -6.015625 9.21875 -6.140625 Z M 6.765625 -0.5 L 4.4375 -0.5 C 4.203125 -0.5 4.171875 -0.5 4.0625 -0.515625 C 3.875 -0.53125 3.859375 -0.5625 3.859375 -0.703125 C 3.859375 -0.828125 3.890625 -0.9375 3.921875 -1.078125 L 5.125 -5.9375 L 8.375 -5.9375 C 10.40625 -5.9375 10.40625 -4.046875 10.40625 -3.90625 C 10.40625 -2.25 8.90625 -0.5 6.765625 -0.5 Z M 6.765625 -0.5 "/>
</symbol>
<symbol overflow="visible" id="glyph0-3">
<path style="stroke:none;" d="M 7.671875 -6.921875 C 8.03125 -6.921875 8.15625 -6.921875 8.15625 -7.25 C 8.15625 -7.421875 8.03125 -7.421875 7.71875 -7.421875 L 6.3125 -7.421875 C 6.640625 -9.1875 6.890625 -10.421875 7.03125 -10.96875 C 7.125 -11.375 7.484375 -11.78125 7.9375 -11.78125 C 8.296875 -11.78125 8.65625 -11.625 8.828125 -11.46875 C 8.15625 -11.40625 7.953125 -10.90625 7.953125 -10.609375 C 7.953125 -10.265625 8.21875 -10.0625 8.546875 -10.0625 C 8.890625 -10.0625 9.40625 -10.34375 9.40625 -11 C 9.40625 -11.71875 8.671875 -12.125 7.921875 -12.125 C 7.1875 -12.125 6.453125 -11.578125 6.109375 -10.90625 C 5.796875 -10.296875 5.625 -9.671875 5.234375 -7.421875 L 4.078125 -7.421875 C 3.75 -7.421875 3.578125 -7.421875 3.578125 -7.109375 C 3.578125 -6.921875 3.6875 -6.921875 4.03125 -6.921875 L 5.125 -6.921875 C 4.828125 -5.328125 4.109375 -1.421875 3.71875 0.40625 C 3.421875 1.90625 3.171875 3.171875 2.3125 3.171875 C 2.25 3.171875 1.75 3.171875 1.453125 2.84375 C 2.328125 2.765625 2.328125 2.015625 2.328125 2 C 2.328125 1.65625 2.0625 1.453125 1.734375 1.453125 C 1.390625 1.453125 0.875 1.734375 0.875 2.390625 C 0.875 3.140625 1.640625 3.515625 2.3125 3.515625 C 4.0625 3.515625 4.78125 0.359375 4.96875 -0.5 C 5.28125 -1.828125 6.125 -6.40625 6.21875 -6.921875 Z M 7.671875 -6.921875 "/>
</symbol>
</g>
<clipPath id="clip1">
  <path d="M 160 1 L 259 1 L 259 179.636719 L 160 179.636719 Z M 160 1 "/>
</clipPath>
</defs>
<g id="surface1">
<path style="fill-rule:evenodd;fill:rgb(67.799377%,84.698486%,90.19928%);fill-opacity:0.3;stroke-width:2;stroke-linecap:butt;stroke-linejoin:round;stroke:rgb(0%,0%,54.499817%);stroke-opacity:0.3;stroke-miterlimit:10;" d="M 240 664 C 240 712.601562 218.511719 752 192 752 C 165.488281 752 144 712.601562 144 664 C 144 615.398438 165.488281 576 192 576 C 218.511719 576 240 615.398438 240 664 " transform="matrix(1,0,0,-1,-142.5,753.5)"/>
<path style=" stroke:none;fill-rule:evenodd;fill:rgb(100%,75.299072%,79.598999%);fill-opacity:0.5;" d="M 257.5 90.136719 C 257.5 41.535156 236.011719 2.136719 209.5 2.136719 C 182.988281 2.136719 161.5 41.535156 161.5 90.136719 C 161.5 138.738281 182.988281 178.136719 209.5 178.136719 C 236.011719 178.136719 257.5 138.738281 257.5 90.136719 "/>
<g clip-path="url(#clip1)" clip-rule="nonzero">
<path style="fill:none;stroke-width:2;stroke-linecap:butt;stroke-linejoin:round;stroke:rgb(54.499817%,0%,0%);stroke-opacity:0.5;stroke-miterlimit:10;" d="M 400 663.363281 C 400 711.964844 378.511719 751.363281 352 751.363281 C 325.488281 751.363281 304 711.964844 304 663.363281 C 304 614.761719 325.488281 575.363281 352 575.363281 C 378.511719 575.363281 400 614.761719 400 663.363281 " transform="matrix(1,0,0,-1,-142.5,753.5)"/>
</g>
<path style=" stroke:none;fill-rule:evenodd;fill:rgb(0%,0%,54.499817%);fill-opacity:1;" d="M 51.300781 49.5 C 51.300781 48.507812 50.492188 47.699219 49.5 47.699219 C 48.507812 47.699219 47.699219 48.507812 47.699219 49.5 C 47.699219 50.492188 48.507812 51.300781 49.5 51.300781 C 50.492188 51.300781 51.300781 50.492188 51.300781 49.5 "/>
<path style=" stroke:none;fill-rule:evenodd;fill:rgb(0%,0%,54.499817%);fill-opacity:1;" d="M 19.300781 81.5 C 19.300781 80.507812 18.492188 79.699219 17.5 79.699219 C 16.507812 79.699219 15.699219 80.507812 15.699219 81.5 C 15.699219 82.492188 16.507812 83.300781 17.5 83.300781 C 18.492188 83.300781 19.300781 82.492188 19.300781 81.5 "/>
<path style=" stroke:none;fill-rule:evenodd;fill:rgb(0%,0%,54.499817%);fill-opacity:1;" d="M 67.300781 113.5 C 67.300781 112.507812 66.492188 111.699219 65.5 111.699219 C 64.507812 111.699219 63.699219 112.507812 63.699219 113.5 C 63.699219 114.492188 64.507812 115.300781 65.5 115.300781 C 66.492188 115.300781 67.300781 114.492188 67.300781 113.5 "/>
<path style=" stroke:none;fill-rule:evenodd;fill:rgb(54.499817%,0%,0%);fill-opacity:1;" d="M 195.300781 49.5 C 195.300781 48.507812 194.492188 47.699219 193.5 47.699219 C 192.507812 47.699219 191.699219 48.507812 191.699219 49.5 C 191.699219 50.492188 192.507812 51.300781 193.5 51.300781 C 194.492188 51.300781 195.300781 50.492188 195.300781 49.5 "/>
<path style=" stroke:none;fill-rule:evenodd;fill:rgb(54.499817%,0%,0%);fill-opacity:1;" d="M 243.300781 81.5 C 243.300781 80.507812 242.492188 79.699219 241.5 79.699219 C 240.507812 79.699219 239.699219 80.507812 239.699219 81.5 C 239.699219 82.492188 240.507812 83.300781 241.5 83.300781 C 242.492188 83.300781 243.300781 82.492188 243.300781 81.5 "/>
<path style=" stroke:none;fill-rule:evenodd;fill:rgb(54.499817%,0%,0%);fill-opacity:1;" d="M 211.300781 113.5 C 211.300781 112.507812 210.492188 111.699219 209.5 111.699219 C 208.507812 111.699219 207.699219 112.507812 207.699219 113.5 C 207.699219 114.492188 208.507812 115.300781 209.5 115.300781 C 210.492188 115.300781 211.300781 114.492188 211.300781 113.5 "/>
<path style=" stroke:none;fill-rule:evenodd;fill:rgb(54.499817%,0%,0%);fill-opacity:1;" d="M 225.039062 146.039062 C 225.039062 145.046875 224.230469 144.238281 223.238281 144.238281 C 222.242188 144.238281 221.4375 145.046875 221.4375 146.039062 C 221.4375 147.035156 222.242188 147.839844 223.238281 147.839844 C 224.230469 147.839844 225.039062 147.035156 225.039062 146.039062 "/>
<path style="fill:none;stroke-width:2;stroke-linecap:butt;stroke-linejoin:round;stroke:rgb(17.999268%,54.499817%,34.098816%);stroke-opacity:1;stroke-miterlimit:10;" d="M 195.675781 705.375 C 260.929688 717.058594 306.003906 717.371094 330.890625 706.3125 " transform="matrix(1,0,0,-1,-142.5,753.5)"/>
<path style="fill-rule:evenodd;fill:rgb(17.999268%,54.499817%,34.098816%);fill-opacity:1;stroke-width:2;stroke-linecap:butt;stroke-linejoin:round;stroke:rgb(17.999268%,54.499817%,34.098816%);stroke-opacity:1;stroke-miterlimit:10;" d="M 330.890625 706.3125 L 325.4375 711.285156 L 323.546875 707.023438 Z M 330.890625 706.3125 " transform="matrix(1,0,0,-1,-142.5,753.5)"/>
<path style="fill:none;stroke-width:2;stroke-linecap:butt;stroke-linejoin:round;stroke:rgb(17.999268%,54.499817%,34.098816%);stroke-opacity:1;stroke-miterlimit:10;" d="M 162.609375 671.730469 C 235.582031 669.648438 292.050781 679.414062 332.019531 701.03125 " transform="matrix(1,0,0,-1,-142.5,753.5)"/>
<path style="fill-rule:evenodd;fill:rgb(17.999268%,54.499817%,34.098816%);fill-opacity:1;stroke-width:2;stroke-linecap:butt;stroke-linejoin:round;stroke:rgb(17.999268%,54.499817%,34.098816%);stroke-opacity:1;stroke-miterlimit:10;" d="M 332.019531 701.03125 L 324.753906 699.753906 L 326.972656 695.652344 Z M 332.019531 701.03125 " transform="matrix(1,0,0,-1,-142.5,753.5)"/>
<path style="fill:none;stroke-width:2;stroke-linecap:butt;stroke-linejoin:round;stroke:rgb(17.999268%,54.499817%,34.098816%);stroke-opacity:1;stroke-miterlimit:10;" d="M 211.046875 638.953125 C 267.011719 628.230469 312.800781 628.261719 348.421875 639.042969 " transform="matrix(1,0,0,-1,-142.5,753.5)"/>
<path style="fill-rule:evenodd;fill:rgb(17.999268%,54.499817%,34.098816%);fill-opacity:1;stroke-width:2;stroke-linecap:butt;stroke-linejoin:round;stroke:rgb(17.999268%,54.499817%,34.098816%);stroke-opacity:1;stroke-miterlimit:10;" d="M 348.421875 639.042969 L 341.046875 639.246094 L 342.398438 634.785156 Z M 348.421875 639.042969 " transform="matrix(1,0,0,-1,-142.5,753.5)"/>
<g style="fill:rgb(0%,0%,54.499817%);fill-opacity:1;">
  <use xlink:href="#glyph0-1" x="83.366" y="178.533"/>
</g>
<g style="fill:rgb(54.499817%,0%,0%);fill-opacity:1;">
  <use xlink:href="#glyph0-2" x="247.135" y="177.896"/>
</g>
<g style="fill:rgb(17.999268%,54.499817%,34.098816%);fill-opacity:1;">
  <use xlink:href="#glyph0-3" x="122.237" y="22.414"/>
</g>
</g>
</svg>
